X:1
T:Polska efter Göran Olsson Föllinger
R:Polska
S:Efter Göran Olsson Föllinger
O:Föllinge, Jämtland
D:Ske ma dans... 
Z:Håkan Lidén 2009-11-29
Q:1/4=130
M:3/4
L:1/8
K:D
|: AB/c/ d>e f>a | g>b a>f (3def | (3gbg (3fed e>c | (3def dc A2-|
AB/c/ d>e f>a | g>b a>f (3def | (3gbg (3fed (3cBc | c<d d4 :|[K:Dm]
|: A>g f2 e>d | ^c>d (3edc d>e | (3gag (3fed e>^c | (3def d^c A2- |
A>g f2 e>d | ^c>d (3edc d>e | (3gag (3fed (3^c=Bc | ^c<d d4 :|

